X: 89
T: St. Kilda Wedding
P: piffero primo a0842
O: scots trad
%R: march
F: http://ancients.sudburymuster.org/mus/sng/pdf/stkildaC0.pdf
Z: 2019 John Chambers <jc:trillian.mit.edu>
M: 4/4
L: 1/16
K: G
z2 |:\
GGG2 GGG2 (G2B2) (d2B2) | A4 (B2G2) E4 (D2E2) |\
GGG2 GGG2 (G2B2) (d2B2) | e6 d2 (e2d2) (e2g2) :|\
g3f (g2a2) (g2d2) d2g2 | e3f (g2f2) e4 (d2c2) |
(B2d2) (e2f2) g3f (e2g2) | (d2g2)(B2g2) A4 (G2E2) ||\
G2g2 (g2f2) (g2d2) (d2g2) | e3f (g2f2) e4 d2c2 |\
(B2d2) (e2f2) g3e (e2g2) | d2B2 g2B2 A4 G2 |]


